Origami/48x48/apps/frozen-bubble.svg

<svg width="48" height="48" version="1" xmlns="http://www.w3.org/2000/svg" xmlns:xlink="http://www.w3.org/1999/xlink">
 <defs>
  <linearGradient id="linearGradient4652" x1="30.577" x2="45" y1="19.129" y2="27.456" gradientTransform="translate(1)" gradientUnits="userSpaceOnUse">
   <stop style="stop-color:#7d329a" offset="0"/>
   <stop style="stop-color:#ac5cce" offset="1"/>
  </linearGradient>
 </defs>
 <path d="m21.507947 4.9998252c-4.731688 0.070803-14.205923 7.9112998-15.380329 17.339844-0.3381824 2.715047 0.00896 5.605887 0.8848475 8.30664 0.4840674 8.4756 11.448655 13.890291 18.296615 14.34961 8.377786 0.200355 16.202276-7.034676 17.739923-8.976563 2.812141-4.221522-1.168144-13.321659-4.719187-18.621093-3.896971-5.815691-11.161529-10.05034-16.821869-12.398438z" style="opacity:.2"/>
 <path d="m18 23.780032c-2.032569 6.285888-5.916467 13.259442-14 12.09067 0.5345193-5.257548 2.7171668-10.551036 5.8003899-14.798623 0.6499491-0.895394 1.9910331-1.292359 2.5457631-2.072079z" style="opacity:.2"/>
 <path d="m18 22.780032c-2.032569 6.285888-5.916467 13.259442-14 12.09067 0.5345193-5.257548 2.7171668-10.551036 5.8003899-14.798623 0.6499491-0.895394 1.9910331-1.292359 2.5457631-2.072079z" style="fill:#653578"/>
 <path d="m21.507947 4c-4.731688 0.070803-14.205923 7.9113-15.380329 17.339844-0.3381824 2.715047 0.00896 5.605887 0.8848475 8.30664 0.4840674 8.4756 11.448655 13.890291 18.296615 14.34961 8.377786 0.200355 16.202276-7.034676 17.739923-8.976563 2.812141-4.221522-1.168144-13.321659-4.719187-18.621093-3.896971-5.815691-11.161529-10.050341-16.821869-12.398438z" style="fill:#7d329a"/>
 <path d="m21.507947 4c-4.731688 0.070803-14.206452 7.9113-15.380859 17.339844-0.1067479 0.85701-0.1381751 1.732747-0.1132812 2.613281 0.0148332-0.542506 0.047045-1.081513 0.1132812-1.613281 1.1744064-9.428544 10.649171-17.269041 15.380859-17.339844 5.66034 2.3480974 12.925295 6.582747 16.822266 12.398438 2.604396 3.886696 5.429299 9.811823 5.646484 14.363281 0.2074-4.649836-2.846145-11.184169-5.646484-15.363281-3.896971-5.815691-11.161926-10.050341-16.822266-12.398438z" style="fill:#ffffff;opacity:.1"/>
 <ellipse transform="matrix(.67816244 -.73491204 .72426347 .68952333 0 0)" cx="-12.835" cy="32.729" rx="6.973" ry="8.91" style="fill:#fcf8fd"/>
 <path d="m33.780032 16c6.285887 2.177752 13.259442 6.339072 12.09067 15-5.257546-0.5727-10.551035-2.911253-14.798623-6.214705-0.895395-0.696372-1.292359-2.133249-2.072079-2.727603z" style="opacity:.2"/>
 <path d="m33.780032 15c6.285887 2.177752 13.259442 6.339072 12.09067 15-5.257546-0.5727-10.551035-2.911253-14.798623-6.214705-0.895395-0.696372-1.292359-2.133249-2.072079-2.727603z" style="fill:url(#linearGradient4652)"/>
 <path d="m18.922179 23.590162c0.972738 4.30975-7.416126 8.754329-11.624861 7.028333-2.0257782-0.830769-2.3709859-3.993773-2.2856419-6.468373 0.0860269-2.191895-0.1294507-2.859297 2.0209809-3.068467 4.0726667-0.385007 11.462082 0.614709 11.889522 2.508507z" style="opacity:.2"/>
 <path d="m18.922179 22.590162c0.972738 4.30975-7.416126 8.754329-11.624861 7.028333-2.0257782-0.830769-2.3709859-3.993773-2.2856419-6.468373 0.0860269-2.191895-0.1294507-2.859297 2.0209809-3.068467 4.0726667-0.385007 11.462082 0.614709 11.889522 2.508507z" style="fill:#ffc102"/>
 <g transform="matrix(.8125 0 0 .8125 1.0625 -3.6250002)" style="opacity:.2">
  <circle transform="scale(-1,1)" cx="-19" cy="26" r="8"/>
  <circle transform="scale(-1,1)" cx="-16.389" cy="25.983" r="4"/>
 </g>
 <g transform="matrix(.5 0 0 .5 -2.4999997 4.9999998)" style="opacity:.2">
  <circle transform="scale(-1,1)" cx="-19" cy="26" r="8"/>
  <circle transform="scale(-1,1)" cx="-16.389" cy="25.983" r="4"/>
 </g>
 <circle transform="scale(-1,1)" cx="-16.5" cy="16.5" r="6.5" style="fill:#ffffff"/>
 <circle transform="scale(-1,1)" cx="-14" cy="17" r="3" style="fill:#3f3f3f"/>
 <circle transform="scale(-1,1)" cx="-7" cy="17" r="4" style="fill:#ffffff"/>
 <circle transform="scale(-1,1)" cx="-6" cy="17" r="2" style="fill:#3f3f3f"/>
</svg>

<svg xmlns="http://www.w3.org/2000/svg" xmlns:xlink="http://www.w3.org/1999/xlink" width="48" height="48" version="1">
 <defs>
  <linearGradient id="linearGradient4648">
   <stop style="stop-color:#7d329a" offset="0"/>
   <stop style="stop-color:#ac5cce" offset="1"/>
  </linearGradient>
  <linearGradient id="linearGradient4652" x1="30.577" x2="45" y1="19.129" y2="27.456" gradientTransform="translate(1)" gradientUnits="userSpaceOnUse" xlink:href="#linearGradient4648"/>
 </defs>
 <path style="opacity:0.2" d="M 21.507947,4.9998252 C 16.776259,5.0706282 7.302024,12.911125 6.1276176,22.339669 c -0.3381824,2.715047 0.00896,5.605887 0.8848475,8.30664 C 7.4965325,39.121909 18.46112,44.5366 25.30908,44.995919 33.686866,45.196274 41.511356,37.961243 43.049003,36.019356 45.861144,31.797834 41.880859,22.697697 38.329816,17.398263 34.432845,11.582572 27.168287,7.3479226 21.507947,4.9998252 Z"/>
 <path style="opacity:0.2" d="M 18,23.780032 C 15.967431,30.06592 12.083533,37.039474 4,35.870702 4.5345193,30.613154 6.7171668,25.319666 9.8003899,21.072079 10.450339,20.176685 11.791423,19.77972 12.346153,19 Z"/>
 <path style="fill:#653578" d="M 18,22.780032 C 15.967431,29.06592 12.083533,36.039474 4,34.870702 4.5345193,29.613154 6.7171668,24.319666 9.8003899,20.072079 10.450339,19.176685 11.791423,18.77972 12.346153,18 Z"/>
 <path style="fill:#7d329a" d="M 21.507947,4 C 16.776259,4.070803 7.302024,11.9113 6.1276176,21.339844 c -0.3381824,2.715047 0.00896,5.605887 0.8848475,8.30664 0.4840674,8.4756 11.4486549,13.890291 18.2966149,14.34961 8.377786,0.200355 16.202276,-7.034676 17.739923,-8.976563 C 45.861144,30.798009 41.880859,21.697872 38.329816,16.398438 34.432845,10.582747 27.168287,6.3480974 21.507947,4 Z"/>
 <path style="opacity:0.1;fill:#ffffff" d="M 21.507947,4 C 16.776259,4.070803 7.3014945,11.9113 6.1270881,21.339844 6.0203402,22.196854 5.988913,23.072591 6.0138069,23.953125 6.0286401,23.410619 6.0608519,22.871612 6.1270881,22.339844 7.3014945,12.9113 16.776259,5.070803 21.507947,5 c 5.66034,2.3480974 12.925295,6.582747 16.822266,12.398438 2.604396,3.886696 5.429299,9.811823 5.646484,14.363281 C 44.184097,27.111883 41.130552,20.57755 38.330213,16.398438 34.433242,10.582747 27.168287,6.3480974 21.507947,4 Z"/>
 <ellipse style="fill:#fcf8fd" cx="-12.835" cy="32.729" rx="6.973" ry="8.91" transform="matrix(0.67816244,-0.73491204,0.72426347,0.68952333,0,0)"/>
 <path style="opacity:0.2" d="m 33.780032,16 c 6.285887,2.177752 13.259442,6.339072 12.09067,15 C 40.613156,30.4273 35.319667,28.088747 31.072079,24.785295 30.176684,24.088923 29.77972,22.652046 29,22.057692 Z"/>
 <path style="fill:url(#linearGradient4652)" d="m 33.780032,15 c 6.285887,2.177752 13.259442,6.339072 12.09067,15 C 40.613156,29.4273 35.319667,27.088747 31.072079,23.785295 30.176684,23.088923 29.77972,21.652046 29,21.057692 Z"/>
 <path style="opacity:0.2" d="m 18.922179,23.590162 c 0.972738,4.30975 -7.416126,8.754329 -11.6248607,7.028333 C 5.2715401,29.787726 4.9263324,26.624722 5.0116764,24.150122 5.0977033,21.958227 4.8822257,21.290825 7.0326573,21.081655 11.105324,20.696648 18.494739,21.696364 18.922179,23.590162 Z"/>
 <path style="fill:#ffc102" d="m 18.922179,22.590162 c 0.972738,4.30975 -7.416126,8.754329 -11.6248607,7.028333 C 5.2715401,28.787726 4.9263324,25.624722 5.0116764,23.150122 5.0977033,20.958227 4.8822257,20.290825 7.0326573,20.081655 11.105324,19.696648 18.494739,20.696364 18.922179,22.590162 Z"/>
 <g style="opacity:0.2" transform="matrix(0.8125,0,0,0.8125,1.0625,-3.6250002)">
  <circle cx="-19" cy="26" r="8" transform="scale(-1,1)"/>
  <circle cx="-16.389" cy="25.983" r="4" transform="scale(-1,1)"/>
 </g>
 <g style="opacity:0.2" transform="matrix(0.5,0,0,0.5,-2.4999997,4.9999998)">
  <circle cx="-19" cy="26" r="8" transform="scale(-1,1)"/>
  <circle cx="-16.389" cy="25.983" r="4" transform="scale(-1,1)"/>
 </g>
 <circle style="fill:#ffffff" cx="-16.5" cy="16.5" r="6.5" transform="scale(-1,1)"/>
 <circle style="fill:#3f3f3f" cx="-14" cy="17" r="3" transform="scale(-1,1)"/>
 <circle style="fill:#ffffff" cx="-7" cy="17" r="4" transform="scale(-1,1)"/>
 <circle style="fill:#3f3f3f" cx="-6" cy="17" r="2" transform="scale(-1,1)"/>
</svg>
